Kocmoc/Assets/_Project/Assets/Ship/Cells/Thruster/Thruster.svg

<?xml version="1.0" encoding="UTF-8" standalone="no"?>
<!-- Created with Inkscape (http://www.inkscape.org/) -->

<svg
   width="256mm"
   height="256mm"
   viewBox="0 0 256 256"
   version="1.1"
   id="svg1"
   inkscape:version="1.3.2 (091e20e, 2023-11-25, custom)"
   sodipodi:docname="Thruster.svg"
   inkscape:export-filename="Thruster.png"
   inkscape:export-xdpi="25.4"
   inkscape:export-ydpi="25.4"
   xmlns:inkscape="http://www.inkscape.org/namespaces/inkscape"
   xmlns:sodipodi="http://sodipodi.sourceforge.net/DTD/sodipodi-0.dtd"
   xmlns="http://www.w3.org/2000/svg"
   xmlns:svg="http://www.w3.org/2000/svg">
  <sodipodi:namedview
     id="namedview1"
     pagecolor="#ffffff"
     bordercolor="#000000"
     borderopacity="0.25"
     inkscape:showpageshadow="2"
     inkscape:pageopacity="0.0"
     inkscape:pagecheckerboard="0"
     inkscape:deskcolor="#d1d1d1"
     inkscape:document-units="mm"
     inkscape:zoom="0.5"
     inkscape:cx="561"
     inkscape:cy="341"
     inkscape:window-width="1920"
     inkscape:window-height="1009"
     inkscape:window-x="-8"
     inkscape:window-y="-8"
     inkscape:window-maximized="1"
     inkscape:current-layer="layer1" />
  <defs
     id="defs1">
    <inkscape:path-effect
       effect="offset"
       id="path-effect8"
       is_visible="true"
       lpeversion="1.2"
       linejoin_type="miter"
       unit="mm"
       offset="8"
       miter_limit="4"
       attempt_force_join="false"
       update_on_knot_move="true" />
    <inkscape:path-effect
       effect="mirror_symmetry"
       start_point="128.11848,33.899441"
       end_point="128.12,256.26065"
       center_point="128.11924,145.08005"
       id="path-effect6"
       is_visible="true"
       lpeversion="1.2"
       lpesatellites=""
       mode="free"
       discard_orig_path="false"
       fuse_paths="false"
       oposite_fuse="false"
       split_items="false"
       split_open="false"
       link_styles="false" />
    <inkscape:path-effect
       effect="mirror_symmetry"
       start_point="77.549362,122.46146"
       end_point="110.19017,122.46146"
       center_point="93.869766,122.46146"
       id="path-effect5"
       is_visible="true"
       lpeversion="1.2"
       lpesatellites=""
       mode="free"
       discard_orig_path="true"
       fuse_paths="false"
       oposite_fuse="false"
       split_items="false"
       split_open="false"
       link_styles="false" />
    <inkscape:path-effect
       effect="mirror_symmetry"
       start_point="110.19,3.7326474"
       end_point="110.19017,241.19027"
       center_point="110.19008,122.46146"
       id="path-effect4"
       is_visible="true"
       lpeversion="1.2"
       lpesatellites=""
       mode="free"
       discard_orig_path="false"
       fuse_paths="false"
       oposite_fuse="false"
       split_items="false"
       split_open="false"
       link_styles="false" />
  </defs>
  <g
     inkscape:label="Layer 1"
     inkscape:groupmode="layer"
     id="layer1">
    <path
       id="path8"
       style="fill:#2b2b36;fill-opacity:1;stroke:#000000;stroke-width:0"
       d="m 1.7378784,29.070262 c -2.53953553,3.595256 -1.72030841,0.22839 -1.72030841,6.482443 v 10.302767 0.08012 1.558379 c 0,2.397317 0.76852888,4.046049 1.83813071,5.179742 4.1772606,7.348748 14.7688683,11.040994 24.3845583,11.040994 H 41.285335 L 3.9615153,194.65951 c -0.2516688,2.08141 -0.9803532,8.89502 -0.3581177,14.38237 0.5561895,4.90485 0.7947836,11.14272 0.7947836,11.14272 l 1.262972,4.35914 4.9144288,2.76205 c 29.83292,-10.34305 57.199528,-13.86796 117.543728,-14.87032 60.3157,1.00105 87.68641,4.52441 117.50342,14.85592 l 4.88911,-2.74765 1.26297,-4.35914 c 0,0 0.2386,-6.23788 0.79479,-11.14272 0.67289,-5.93407 -0.23819,-13.476 -0.4067,-14.78885 L 214.95329,63.714711 h 14.80633 c 9.5965,0 20.16682,-3.676512 24.3613,-10.99598 1.08124,-1.132394 1.86139,-2.788648 1.86139,-5.224756 v -1.558379 -0.08012 -10.302767 c 0,-9.823761 -4.98751,-5.617818 -6.9572,-5.574964 l -18.53789,0.403324 -18.14101,-0.288088 -7.74706,0.149443 -69.01518,-0.460942 -15.12828,-0.05762 -69.201971,0.288088 z"
       transform="matrix(1,0,0,1.1480122,0,-32.805092)"
       sodipodi:nodetypes="ccccscsccscccccccsccscsccssccccccc" />
    <ellipse
       style="fill:#242424;fill-opacity:1;stroke:#000000;stroke-width:0"
       id="path7"
       ry="19.690138"
       rx="123.30668"
       cy="222.13902"
       cx="128.11363" />
    <path
       id="ellipse19"
       style="fill:#464649;fill-opacity:1;stroke:#000000;stroke-width:0"
       d="m 250.43164,217.01905 c -5.09731,8.57697 -57.54242,18.30501 -122.31812,18.31929 -64.346518,-0.0124 -116.529045,-10.11731 -122.1827171,-18.63091 -0.5252063,-1.27082 -0.3336376,1.06423 -1.6531275,4.97128 -4.602e-4,10.87461 55.1871506,20.021 123.8358446,20.021 68.6487,0 124.29934,-8.81565 124.29888,-19.69027 -0.67714,-0.83111 -1.13109,-4.76179 -1.98076,-4.99039 z"
       sodipodi:nodetypes="ccccscc" />
    <path
       id="rect1"
       style="fill:#2b2b36;stroke:#000000;stroke-width:0"
       d="M 0.0217041,8.53e-6 C 0.00975517,8.53e-6 0,0.00220859 0,0.0049034 v 4.4880454 0.035314 0.6793429 c 0,0.0027 0.00975517,0.00478 0.0217041,0.00478 H 0.25269775 C 1.7087033,7.3735838 9.9197959,9.0212023 19.921781,9.0212023 H 236.07861 c 10.00198,0 18.21255,-1.6476229 19.66857,-3.8088189 h 0.23099 c 0.0119,0 0.0217,-0.00209 0.0217,-0.00478 V 4.528262 4.4929488 0.0049034 C 255.99987,0.0022057 255.98987,0 255.97817,0 H 236.07861 19.921781 Z" />
    <path
       id="path6"
       style="fill:#757575;fill-opacity:1;stroke:#000000;stroke-width:0"
       d="m 199.15322,7.9710902 -71.03287,0.00155 v 0.025322 h -0.004 V 7.97264 l -71.032876,-5.166e-4 -0.0062,0.025838 H 26.240776 7.5039347 c -0.01125,0 -0.020154,0.00582 -0.020154,0.012919 v 11.8256346 0.09302 1.790071 c 0,0.0071 0.0089,0.01292 0.020154,0.01292 H 7.7214925 C 9.0923709,27.427125 16.823568,31.768087 26.240776,31.768087 H 51.175688 L 4.0348958,221.63763 C 36.743875,207.96771 64.607423,203.70672 128.11724,202.50082 l 0.002,-109.422264 -0.002,-61.310469 h 0.003 l -0.001,61.310469 0.003,109.422264 c 63.50983,1.2049 91.37372,5.46534 124.08286,19.13475 L 205.0619,31.768087 h 24.69772 c 9.41721,0 17.14787,-4.340972 18.51877,-10.035563 h 0.21755 c 0.0112,0 0.0202,-0.0058 0.0202,-0.01292 V 19.929533 19.836515 8.0108803 c 0,-0.0071 -0.009,-0.012919 -0.0202,-0.012919 h -18.73632 -30.59968 z" />
  </g>
</svg>

<?xml version="1.0" encoding="UTF-8" standalone="no"?>
<!-- Created with Inkscape (http://www.inkscape.org/) -->

<svg
   width="256mm"
   height="256mm"
   viewBox="0 0 256 256"
   version="1.1"
   id="svg1"
   inkscape:version="1.3.2 (091e20e, 2023-11-25, custom)"
   sodipodi:docname="Thruster.svg"
   inkscape:export-filename="Thruster.png"
   inkscape:export-xdpi="25.4"
   inkscape:export-ydpi="25.4"
   xmlns:inkscape="http://www.inkscape.org/namespaces/inkscape"
   xmlns:sodipodi="http://sodipodi.sourceforge.net/DTD/sodipodi-0.dtd"
   xmlns="http://www.w3.org/2000/svg"
   xmlns:svg="http://www.w3.org/2000/svg">
  <sodipodi:namedview
     id="namedview1"
     pagecolor="#ffffff"
     bordercolor="#000000"
     borderopacity="0.25"
     inkscape:showpageshadow="2"
     inkscape:pageopacity="0.0"
     inkscape:pagecheckerboard="0"
     inkscape:deskcolor="#d1d1d1"
     inkscape:document-units="mm"
     inkscape:zoom="0.35355339"
     inkscape:cx="60.811183"
     inkscape:cy="736.80527"
     inkscape:window-width="1920"
     inkscape:window-height="1009"
     inkscape:window-x="-8"
     inkscape:window-y="-8"
     inkscape:window-maximized="1"
     inkscape:current-layer="layer1" />
  <defs
     id="defs1">
    <inkscape:path-effect
       effect="offset"
       id="path-effect8"
       is_visible="true"
       lpeversion="1.2"
       linejoin_type="miter"
       unit="mm"
       offset="8"
       miter_limit="4"
       attempt_force_join="false"
       update_on_knot_move="true" />
    <inkscape:path-effect
       effect="mirror_symmetry"
       start_point="128.11848,33.899441"
       end_point="128.12,256.26065"
       center_point="128.11924,145.08005"
       id="path-effect6"
       is_visible="true"
       lpeversion="1.2"
       lpesatellites=""
       mode="free"
       discard_orig_path="false"
       fuse_paths="false"
       oposite_fuse="false"
       split_items="false"
       split_open="false"
       link_styles="false" />
    <inkscape:path-effect
       effect="mirror_symmetry"
       start_point="77.549362,122.46146"
       end_point="110.19017,122.46146"
       center_point="93.869766,122.46146"
       id="path-effect5"
       is_visible="true"
       lpeversion="1.2"
       lpesatellites=""
       mode="free"
       discard_orig_path="true"
       fuse_paths="false"
       oposite_fuse="false"
       split_items="false"
       split_open="false"
       link_styles="false" />
    <inkscape:path-effect
       effect="mirror_symmetry"
       start_point="110.19,3.7326474"
       end_point="110.19017,241.19027"
       center_point="110.19008,122.46146"
       id="path-effect4"
       is_visible="true"
       lpeversion="1.2"
       lpesatellites=""
       mode="free"
       discard_orig_path="false"
       fuse_paths="false"
       oposite_fuse="false"
       split_items="false"
       split_open="false"
       link_styles="false" />
  </defs>
  <g
     inkscape:label="Layer 1"
     inkscape:groupmode="layer"
     id="layer1">
    <path
       id="path8"
       style="fill:#2b2b36;fill-opacity:1;stroke:#000000;stroke-width:0"
       d="M 197.37125,35.799192 58.85726,35.781305 29.096327,193.42039 c -0.200705,2.50613 -0.781834,10.71012 -0.2856,17.31721 0.443563,5.9057 0.633844,13.41648 0.633844,13.41648 l 1.007224,5.24866 3.919274,3.32566 c 23.791834,-12.45362 45.616874,-16.69783 93.741541,-17.90472 48.10193,1.20532 69.93024,5.44766 93.70939,17.88739 l 3.89908,-3.30833 1.00722,-5.24866 c 0,0 0.19029,-7.51079 0.63385,-13.41648 0.53663,-7.14496 -0.18995,-16.22589 -0.32434,-17.80663 z" />
    <path
       id="path3"
       style="fill:#2b2b36;fill-opacity:1;stroke:#000000;stroke-width:0"
       d="M 253.24242 29.065311 C 251.74934 28.894184 250.00995 29.956314 249.02511 29.977741 L 230.48722 30.381065 L 212.34621 30.092977 L 204.5994 30.242423 L 135.58397 29.781481 L 120.4557 29.723863 L 51.253719 30.011952 L 1.7378784 29.070262 C -0.80165457 32.665515 0.017569987 29.298658 0.017569987 35.552705 L 0.017569987 45.855472 L 0.017569987 45.935596 L 0.017569987 47.493975 C 0.017569987 49.89129 0.78609992 51.540025 1.8557007 52.673717 C 6.0329571 60.022458 16.624578 63.714711 26.240259 63.714711 L 41.285335 63.714711 L 41.279134 63.736317 L 214.96362 63.751172 L 214.95329 63.714711 L 229.75962 63.714711 C 239.35611 63.714711 249.92645 60.038192 254.12092 52.718731 C 255.20216 51.586338 255.98231 49.930081 255.98231 47.493975 L 255.98231 45.935596 L 255.98231 45.855472 L 255.98231 35.552705 C 255.98231 30.640829 254.73551 29.236438 253.24242 29.065311 z "
       transform="matrix(1,0,0,1.1480122,0,-32.805092)" />
    <ellipse
       style="fill:#242424;fill-opacity:1;stroke:#000000;stroke-width:0"
       id="path7"
       ry="23.431911"
       rx="98.755501"
       cy="225.8808"
       cx="128.53177" />
    <path
       id="ellipse19"
       style="fill:#464649;fill-opacity:1;stroke:#000000;stroke-width:0"
       d="m 225.79218,219.78786 c -4.07229,10.20687 -45.97111,21.78356 -97.72095,21.80055 -51.406954,-0.0148 -93.095998,-12.03993 -97.612762,-22.17139 -0.419591,-1.51232 -0.266546,1.26647 -1.320697,5.91599 -3.68e-4,12.94114 44.089462,23.82564 98.933459,23.82564 54.84401,0 99.30375,-10.49091 99.30339,-23.43206 -0.54096,-0.98905 -0.90363,-5.66669 -1.58244,-5.93873 z"
       sodipodi:nodetypes="ccccscc" />
    <path
       id="rect1"
       style="fill:#2b2b36;stroke:#000000;stroke-width:0"
       d="M 0.0217041,8.53e-6 C 0.00975517,8.53e-6 0,0.00220859 0,0.0049034 v 4.4880454 0.035314 0.6793429 c 0,0.0027 0.00975517,0.00478 0.0217041,0.00478 H 0.25269775 C 1.7087033,7.3735838 9.9197959,9.0212023 19.921781,9.0212023 H 236.07861 c 10.00198,0 18.21255,-1.6476229 19.66857,-3.8088189 h 0.23099 c 0.0119,0 0.0217,-0.00209 0.0217,-0.00478 V 4.528262 4.4929488 0.0049034 C 255.99987,0.0022057 255.98987,0 255.97817,0 H 236.07861 19.921781 Z" />
    <path
       id="path6"
       style="fill:#757575;fill-opacity:1;stroke:#000000;stroke-width:0"
       d="m 129.97157,90.072344 -0.002,-66.216209 -62.767045,0.05031 -38.413633,205.201445 c 26.671879,-14.78388 49.392754,-19.39213 101.180558,-20.6963 z" />
    <path
       id="path2"
       style="fill:#757575;fill-opacity:1;stroke:#000000;stroke-width:0"
       d="m 190.04801,24.070976 -61.92768,0.04974 -8.5e-4,66.216209 0.002,118.339245 c 51.11072,1.30309 73.53481,5.91072 99.8581,20.69406 z" />
    <path
       id="path1"
       style="fill:#757575;fill-opacity:1;stroke:#000000;stroke-width:0"
       d="M 199.15322 7.9710897 L 128.12035 7.97264 L 128.12035 7.9979614 L 128.11621 7.9979614 L 128.11621 7.97264 L 57.083337 7.9721232 L 57.077136 7.9979614 L 26.240776 7.9979614 L 7.5039347 7.9979614 C 7.4926847 7.9979614 7.4837809 8.0037815 7.4837809 8.0108805 L 7.4837809 19.836515 L 7.4837809 19.929533 L 7.4837809 21.719604 C 7.4837809 21.726704 7.4926807 21.732524 7.5039347 21.732524 L 7.7214925 21.732524 C 9.0923695 27.427117 16.823577 31.768087 26.240776 31.768087 L 51.175688 31.768087 L 51.143132 31.898311 L 128.11724 31.851803 L 128.11724 31.768087 L 128.12035 31.768087 L 128.12035 31.851803 L 205.0712 31.805811 L 205.0619 31.768087 L 229.75962 31.768087 C 239.17682 31.768087 246.90749 27.427109 248.27839 21.732524 L 248.49594 21.732524 C 248.50714 21.732524 248.5161 21.726724 248.5161 21.719604 L 248.5161 19.929533 L 248.5161 19.836515 L 248.5161 8.0108805 C 248.5161 8.0037805 248.50714 7.9979614 248.49594 7.9979614 L 229.75962 7.9979614 L 199.15994 7.9979614 L 199.15322 7.9710897 z " />
  </g>
</svg>
